X: 485
T: Cooley's
B: jims roots
B: ralph
M:4/4
L:1/8
R: reel
Q: 1/4=100
K:Edor
V:1 
ED|"Em"EBBA B2 EB|"Em"B2 AB dBAG|"D"F/E/D AD BDAD|"D"F/E/D AD BAGF|
"Em"EBBA B2 EB|"Em" B2 AB defg|"D" afec dBAF|"D"DEFD "Em"E3:|
|:gf|"Em"eBB2 eBgf|"Em"eBB2 gedB|"D"A/A/A FA DAFA|"D"A/A/A FA defg|
"Em"eBB2 eBgf|"Em"eBB2 defg|"D"afec dBAF|"D"DEFD "Em"E2:|
% abcbook-tune_id 6298c2458c3c27e0b2958235


% abcbook-boost 0
% abcbook-tablature 
% abcbook-transpose 
% abcbook-lastupdated 1654178373789
% abcbook-soundfonts 
% abcbook-repeats 1


